X:1
T:Ye Mar'ners All
M:5/4
L:1/8
K:Gdor
D2|G2G2(G2F2)D2|B,2C2D4G2|
w:Ye mar'-ners all,_ as you pass by Call 
G2A2(d2B2)G2|F2G2A4G2|d2d2(c2B2)A2|
w:in and drink_ if you are dry Come spend, my lads,_ your 
G2G2D4D2|F2D2C4C C|D2D2G4|]
w:mon-ey brisk And pop your nose in a jug of this